symbols/web/linear_scale/materialsymbolsoutlined/linear_scale_wght100grad200_40px.svg

<svg xmlns="http://www.w3.org/2000/svg" height="40" width="40"><path d="M28.667 27.458q-2.834 0-4.875-1.833-2.042-1.833-2.542-4.792H11.042q-.292 1.167-1.209 2-.916.834-2.291.834-1.5 0-2.584-1.084Q3.875 21.5 3.875 20q0-1.5 1.083-2.583 1.084-1.084 2.584-1.084 1.375 0 2.291.813.917.812 1.209 1.979H21.25q.5-2.958 2.542-4.771 2.041-1.812 4.875-1.812 3.083 0 5.271 2.208 2.187 2.208 2.187 5.333 0 3-2.187 5.188-2.188 2.187-5.271 2.187Zm0-1.75q2.375 0 4.041-1.666 1.667-1.667 1.667-4.042t-1.667-4.042q-1.666-1.666-4.041-1.666-2.375 0-4.042 1.666-1.667 1.667-1.667 4.042t1.667 4.042q1.667 1.666 4.042 1.666Z"/></svg>

<svg xmlns="http://www.w3.org/2000/svg" height="40" width="40"><path d="M28.667 27.458Q25.833 27.458 23.792 25.625Q21.75 23.792 21.25 20.833H11.042Q10.75 22 9.833 22.833Q8.917 23.667 7.542 23.667Q6.042 23.667 4.958 22.583Q3.875 21.5 3.875 20Q3.875 18.5 4.958 17.417Q6.042 16.333 7.542 16.333Q8.917 16.333 9.833 17.146Q10.75 17.958 11.042 19.125H21.25Q21.75 16.167 23.792 14.354Q25.833 12.542 28.667 12.542Q31.75 12.542 33.938 14.75Q36.125 16.958 36.125 20.083Q36.125 23.083 33.938 25.271Q31.75 27.458 28.667 27.458ZM28.667 25.708Q31.042 25.708 32.708 24.042Q34.375 22.375 34.375 20Q34.375 17.625 32.708 15.958Q31.042 14.292 28.667 14.292Q26.292 14.292 24.625 15.958Q22.958 17.625 22.958 20Q22.958 22.375 24.625 24.042Q26.292 25.708 28.667 25.708Z"/></svg>
